X: 21421
T: Kesköine
R: polka
M: 2/4
K: Gmixolydian
G2FD|GG FD|F/E/D/E/ F/E/D/E/|F/E/D/E/ F/E/D/E/|
G2FD|GG FD|F/E/D/E/ F/E/D/C/|B,G, G,2:|
|:B2G2|DGG2|F/E/D/E/ F/E/D/E/|F/E/D/E/ F/E/D/E/|
B2G2|DGG2|F/E/D/E/ F/E/D/C/|B,G, G,2:|

